!!!!SEGMENT: pl-kk--kk-i-136--003_anonim--sepulto-domine.krn
!!!cenid: 16xx:749
!!!COM: Anonim
!!!COM-rismid: pe30004985
!!!CDT:
!!!CNT:
!!!OTL: Sepulto Domine
!!!PDT:
!!!AGN: Sacred
!!!SMS-siglum: PL-Kk
!!!SMS-shelfmark: Kk.I.136
!!!SMS-shelfwork: 003 W
!!!SMS-variant:
!!!SMS-altvar:
!!!NIFC-rismid: 1001143722
!!!URL-scan: http://repozytorium.nifc.pl/skany/pl-kk-nut--i-136
!!!ONB-nifc: UWAGA: utwory w zbiorze: 1. Caligaverunt oculi a fletu meo, 2. Vinea mea electa, 3. Sepulto Domine, 4. Ecce quo modo moritur
**kern	**text	**kern	**text	**kern	**text	**kern
*part4	*part4	*part3	*part3	*part2	*part2	*part1
*staff4	*staff4	*staff3	*staff3	*staff2	*staff2	*staff1
*Iempty	*	*Iempty	*	*Itenor	*	*Ivox
*I"Baſus	*	*I"Baßus	*	*I"Tenor	*	*I"Cantus Primus.
*I'B 2	*	*I'B 1	*	*I'T	*	*I'S 1
*clefF4	*	*clefF4	*	*clefC4	*	*clefC1
*k[]	*	*k[]	*	*k[]	*	*k[]
*C:	*	*C:	*	*C:	*	*C:
*M2/1	*	*M2/1	*	*M2/1	*	*M2/1
*met(C.)	*	*met(c|)	*	*met(c|)	*	*met(c|)
=1-	=1-	=1-	=1-	=1-	=1-	=1-
*2\right	*	*2\right	*	*2\right	*	*
!LO:TX:a:t=P:problem:all\right	!	!LO:TX:a:t=P:problem:all\right	!	!LO:TX:a:t=P:problem:all\right	!	!LO:TX:a:t=P:problem:brak partii w źródle
!LO:TX:a:t=P:problem:inicjał przed kluczem	!	!LO:TX:a:t=P:problem:inicjał przed kluczem	!	!LO:TX:a:t=P:problem:inicjał przed kluczem	!	!
!LO:TX:i:a:t=a 4. Voc⟨.⟩. Baſus	!	!	!	!	!	!
0E	Se-	0E	Se-	0G	Se-	1ryy
.	.	.	.	.	.	1ryy
=2-	=2-	=2-	=2-	=2-	=2-	=2-
1D	-pul-	1D	-pul-	1A	-pul-	1ryy
1C	-to	1C	-to	1c	-to	1ryy
=3-	=3-	=3-	=3-	=3-	=3-	=3-
1.F	Do-	1.F	Do-	1.c	Do-	1ryy
.	.	.	.	.	.	1ryy
2F\	-mi-	2F\	-mi-	2c\	-mi-	.
=4-	=4-	=4-	=4-	=4-	=4-	=4-
!	!	!LO:TX:t=P:problem:kreska pseudotaktowa	!	!LO:TX:t=P:problem:kreska pseudotaktowa	!	!
1C	-no	1C	-no	1c	-no	1ryy
2r	.	2r	.	2r	.	1ryy
2C/	ſi-	2C/	ſi-	2e\	Si-	.
=5-	=5-	=5-	=5-	=5-	=5-	=5-
2C/	-gna-	2C/	-gna-	2e\	-gna-	1ryy
2C/	-tum	2C/	-tum	2e,<\	-tum	.
2C/	eſt	2C/	eſt	2e\	eſt	1ryy
1G	Mo-	1G	Mo-	1d	Mo-	.
=6-	=6-	=6-	=6-	=6-	=6-	=6-
.	.	.	.	.	.	1ryy
2E\	-nu-	2E\	-nu-	2e\	-nu-	.
1A	-men-	1A	-men-	1c	-men-	1ryy
=7-	=7-	=7-	=7-	=7-	=7-	=7-
!LO:TX:t=P:problem:kreska pseudotaktowa	!	!LO:TX:t=P:problem:kreska pseudotaktowa	!	!LO:TX:t=P:problem:kreska pseudotaktowa	!	!
1E	-tum	1E	-tum	1B	-tum	1ryy
2r	.	2r	.	2r	.	1ryy
2E\	Vol-	2E\	Vol-	2B\	Vol-	.
=8-	=8-	=8-	=8-	=8-	=8-	=8-
1E	-uen-	1E	-uen-	1B	-uen-	1ryy
2E\	-tes	2E\	-tes	2B\	-tes	1ryy
1D	la-	1D	la-	1d	la-	.
=9-	=9-	=9-	=9-	=9-	=9-	=9-
.	.	.	.	.	.	1ryy
2E\	-pi-	2E\	-pi-	2B\	-pi-	.
!	!	!LO:TX:t=P:problem:kreska pseudotaktowa	!	!LO:TX:t=P:problem:kreska pseudotaktowa	!	!
1E	-dem	1E	-dem	1B	-dem	1ryy
=10-	=10-	=10-	=10-	=10-	=10-	=10-
2r	.	2r	.	2r	.	1ryy
!	!	!	!	!LO:TX:a:t=P:problem:# above	!	!
2A\	ad	2A\	ad	2c#X\	ad	.
2.G\	oſ-	2.G\	oſ-	2.d\	Oſ-	1ryy
4G\	-ti-	4G\	-ti-	4d\	-ti-	.
=11-	=11-	=11-	=11-	=11-	=11-	=11-
2G\	-um	2G\	-um	2d\	-um	1ryy
1C	Mo-	1C	Mo-	1e	Mo-	.
.	.	.	.	.	.	1ryy
2E\	-nu-	2E\	-nu-	2e\	-nu-	.
=12-	=12-	=12-	=12-	=12-	=12-	=12-
1F	-men-	1F	-men-	1cny	-men-	1ryy
!LO:SIC:v:t:custos C	!	!LO:SIC:v:t:custos C	!	!LO:SIC:v:t:custos c	!	!
!	!	!	!	!LO:TX:t=P:problem:kreska pseudotaktowa	!	!
1G	-ti	1G	-ti	1B	-ti	1ryy
!LO:LB:g=original	!	!LO:LB:g=original	!	!LO:LB:g=original	!	!
=13-	=13-	=13-	=13-	=13-	=13-	=13-
2r	.	2r	.	2r	.	1ryy
2C/	Po-	2C/	Po-	2c\	Po-	.
1C	-nen-	1C	-nen-	1c	-nen-	1ryy
=14-	=14-	=14-	=14-	=14-	=14-	=14-
2C/	-tes	2C/	-tes	2c\	-tes	1ryy
2.F\	mi-	2.F\	mi-	2.c\	mi-	.
.	.	.	.	.	.	1ryy
4F\	-li-	4F\	-li-	4c\	-li-	.
!	!	!LO:TX:t=P:problem:kreska pseudotaktowa	!	!LO:TX:t=P:problem:kreska pseudotaktowa	!	!
2C/	-tes	2C/	-tes	2c\	-tes	.
=15-	=15-	=15-	=15-	=15-	=15-	=15-
2r	.	2r	.	2r	.	1ryy
1C	qui	1C	qui	1G	qui	.
.	.	.	.	.	.	1ryy
2C/	Cu-	2C/	Cu-	2G/	Cu-	.
=16-	=16-	=16-	=16-	=16-	=16-	=16-
2C/	-ſto-	2C/	-ſto-	2G/	-ſto-	1ryy
1AA	-di-	1AA	-di-	1A	-di-	.
.	.	.	.	.	.	1ryy
2C/	-rent	2C/	-rent	2G/	-rent	.
=17-	=17-	=17-	=17-	=17-	=17-	=17-
!	!	!	!	!LO:TX:a:t=P:problem:# above	!	!
1D	il-	1D	il-	1F#X	il-	1ryy
!	!	!LO:TX:t=P:problem:kreska pseudotaktowa	!	!LO:TX:t=P:problem:kreska pseudotaktowa	!	!
1C	-lud	1C	-lud	1G	-lud	1ryy
=18-	=18-	=18-	=18-	=18-	=18-	=18-
2r	.	2r	.	2r	.	1ryy
*	*ij	*	*ij	*	*	*
1C	qui	1C	qui	1c	qui	.
.	.	.	.	.	.	1ryy
2C/	Cu-	2C/	Cu-	2c\	Cu-	.
=37-	=37-	=37-	=37-	=37-	=37-	=37-
2C/	-ſto-	2C/	-ſto-	2c\	-ſto-	1ryy
1G	-di-	1G	-di-	1B	-di-	.
.	.	.	.	.	.	1ryy
2A\	-rent	2A\	-rent	1A	-rent	.
=19-	=19-	=19-	=19-	=19-	=19-	=19-
1E	il-	1E	il-	.	.	1ryy
.	.	.	.	2G/	il-	.
!LO:TX:a:t=P:problem:fermaty bez kropek	!	!LO:TX:a:t=P:problem:fermata bez kropki	!	!LO:TX:a:t=P:problem:fermata bez kropki	!	!
0AA;;	-lud	0AA;>	-lud	0A;>	-lud	1ryy
!	!	!	!	!LO:LB:g=original	!	!
*	*Xij	*	*Xij	*	*	*
!LO:LB:g=original	!	!	!	!	!	!
=20-	=20-	=20-	=20-	=20-	=20-	=20-
.	.	.	.	.	.	1ryy
*	*	*clefF4	*	*	*	*
*M2/1	*	*	*	*	*	*
*met(C.)	*	*	*	*	*	*
!LO:TX:a:t=P:problem:inicjał przed kluczem	!	!LO:TX:a:t=P:problem:inicjał przed kluczem	!	!LO:LB:g=original	!	!
1A	Ne	1A	Ne	2r	.	1ryy
!	!	!	!	!LO:TX:a:t=P:problem:inicjał przed kluczem	!	!
.	.	.	.	2c\	Ne	.
=21-	=21-	=21-	=21-	=21-	=21-	=21-
1E	for-	1E	for-	1B	for-	1ryy
2E\	-te	2E\	-te	2B,<\	-te	1ryy
2.E\	Ve-	2.E\	Ve-	2.B\	Ve-	.
=22-	=22-	=22-	=22-	=22-	=22-	=22-
.	.	.	.	.	.	1ryy
4E\	-ni-	4E\	-ni-	4B\	-ni-	.
!	!	!LO:SIC:v:t:custos D	!	!	!	!
2E\	-ant	2E\	-ant	2B,<\	-ant	.
!	!	!LO:LB:g=original	!	!	!	!
2D/	di-	2D/	di-	2d\	di-	1ryy
2.C/	-ſci-	2.C/	-ſci-	2.e\	-ſci-	.
=23-	=23-	=23-	=23-	=23-	=23-	=23-
.	.	.	.	.	.	1ryy
4C/	-pu-	4C/	-pu-	4e\	-pu-	.
2G\	-li	2G\	-li	2d\	-li	.
1A	e-	1A	e-	1c	e-	1ryy
=24-	=24-	=24-	=24-	=24-	=24-	=24-
!	!	!LO:TX:t=P:problem:kreska pseudotaktowa	!	!LO:TX:t=P:problem:kreska pseudotaktowa	!	!
1E	-ius	1E	-ius	1B	-ius	1ryy
2r	.	2r	.	2r	.	1ryy
2E\	et	2E\	et	2B\	et	.
=25-	=25-	=25-	=25-	=25-	=25-	=25-
2D/	fu-	2D/	fu-	2d\	fu-	1ryy
1G	-ren-	1G	-ren-	1d	-ren-	.
.	.	.	.	.	.	1ryy
2C/	-tur	2C/	-tur	2e\	-tur	.
=26-	=26-	=26-	=26-	=26-	=26-	=26-
!LO:N:vis=1	!	!	!	!	!	!
1.F	e-	1.F	e-	1.c	e-	1ryy
.	.	.	.	.	.	1ryy
!	!	!LO:TX:t=P:problem:kreska pseudotaktowa	!	!LO:TX:t=P:problem:kreska pseudotaktowa	!	!
2C/	-um	2C/	-um	2c\	-um	.
=27-	=27-	=27-	=27-	=27-	=27-	=27-
2r	.	2r	.	2r	.	1ryy
2C/	et	2C/	et	2G/	et	.
2F\	di-	2F\	di-	2A/	di-	1ryy
!	!	!LO:TX:t=P:problem:kreska pseudotaktowa	!	!	!	!
2C/	-cant	2C/	-cant	2G/	-cant	.
=28-	=28-	=28-	=28-	=28-	=28-	=28-
2r	.	2r	.	2r	.	1ryy
*	*ij	*	*ij	*	*ij	*
2C/	et	2C/	et	2c\	et	.
2F\	di-	2F\	di-	2c\	di-	1ryy
!	!	!LO:TX:t=P:problem:kreska pseudotaktowa	!	!	!	!
2C/	-cant	2C/	-cant	2c\	-cant	.
*	*	*	*	*	*Xij	*
=29-	=29-	=29-	=29-	=29-	=29-	=29-
2r	.	2r	.	2r	.	1ryy
2C/	et	2C/	et	2e\	et	.
2F\	di-	2F\	di-	2f\	di-	1ryy
!LO:SIC:v:t:custos G	!	!	!	!	!	!
2C/	-cant	2C/	-cant	2e\	-cant	.
*	*Xij	*	*Xij	*	*	*
!LO:LB:g=original	!	!	!	!	!	!
=30-	=30-	=30-	=30-	=30-	=30-	=30-
1G	ple-	1G	ple-	1d	ple-	1ryy
!LO:TX:t=P:problem:kreska pseudotaktowa	!	!LO:TX:t=P:problem:kreska pseudotaktowa	!	!LO:TX:t=P:problem:kreska pseudotaktowa	!	!
1C	-bi	1C	-bi	1c	-bi	1ryy
=31-	=31-	=31-	=31-	=31-	=31-	=31-
2r	.	2r	.	2r	.	1ryy
!	!	!	!	!LO:SIC:v:t:custos e	!	!
2C/	ſur-	2C/	ſur-	2e\	ſur-	.
!	!	!	!	!LO:LB:g=original	!	!
2C/	-re-	2C/	-re-	2e\	-re-	1ryy
2C/	-xit	2C/	-xit	2e\	-xit	.
=32-	=32-	=32-	=32-	=32-	=32-	=32-
2G\	à	2G\	à	2d\	à	1ryy
1D	mor-	1D	mor-	1d	mor-	.
.	.	.	.	.	.	1ryy
2E\	-tu-	2E\	-tu-	2B\	-tu-	.
=33-	=33-	=33-	=33-	=33-	=33-	=33-
!	!	!LO:SIC:v:t:custos C	!	!LO:TX:t=P:problem:kreska pseudotaktowa	!	!
1E	-is	1E	-is	1B	-is	1ryy
!	!	!LO:LB:g=original	!	!	!	!
2r	.	2r	.	2r	.	1ryy
*	*ij	*	*	*	*	*
2C/	ſur-	2C/	ſur-	2e\	ſur-	.
=34-	=34-	=34-	=34-	=34-	=34-	=34-
2C/	-re-	2C/	-re-	2e\	-re-	1ryy
2C/	-xit	2C/	-xit	2e\	-xit	.
2G\	à	2G\	à	2d\	à	1ryy
1D	mor-	1D	mor-	1d	mor-	.
=35-	=35-	=35-	=35-	=35-	=35-	=35-
.	.	.	.	.	.	1ryy
2E\	-tu-	2E\	-tu-	2B\	-tu-	.
!	!	!LO:TX:t=P:problem:kreska pseudotaktowa	!	!LO:TX:t=P:problem:kreska pseudotaktowa	!	!
1E	-is	1E	-is	1B	-is	1ryy
*	*Xij	*	*	*	*	*
=36-	=36-	=36-	=36-	=36-	=36-	=36-
2r	.	2r	.	2r	.	1ryy
2C/	Po-	2C/	Po-	2c\	Po-	.
1C	-nen-	1C	-nen-	1c	-nen-	1ryy
=37-	=37-	=37-	=37-	=37-	=37-	=37-
2C/	-tes	2C/	-tes	2c\	-tes	1ryy
2.F\	mi-	2.F\	mi-	2.c\	mi-	.
.	.	.	.	.	.	1ryy
4F\	-li-	4F\	-li-	4c\	-li-	.
!	!	!LO:TX:t=P:problem:kreska pseudotaktowa	!	!LO:TX:t=P:problem:kreska pseudotaktowa	!	!
2C/	-tes	2C/	-tes	2c\	-tes	.
=38-	=38-	=38-	=38-	=38-	=38-	=38-
2r	.	2r	.	2r	.	1ryy
1C	qui	1C	qui	1G	qui	.
.	.	.	.	.	.	1ryy
2C/	Cu-	2C/	Cu-	2G/	Cu-	.
=39-	=39-	=39-	=39-	=39-	=39-	=39-
2C/	-ſto-	2C/	-ſto-	2G/	-ſto-	1ryy
1AA	-di-	1AA	-di-	1A	-di-	.
.	.	.	.	.	.	1ryy
2C/	-rent	2C/	-rent	2G/	-rent	.
=40-	=40-	=40-	=40-	=40-	=40-	=40-
1D	il-	1D	il-	1Fny	il-	1ryy
!LO:SIC:v:t:custos C	!	!LO:TX:t=P:problem:kreska pseudotaktowa	!	!LO:TX:t=P:problem:kreska pseudotaktowa	!	!
1C	-lud	1C	-lud	1G	-lud	1ryy
!LO:LB:g=original	!	!	!	!	!	!
=41-	=41-	=41-	=41-	=41-	=41-	=41-
2r	.	2r	.	2r	.	1ryy
*	*ij	*	*ij	*	*ij	*
1C	qui	1C	qui	1c	qui	.
.	.	.	.	.	.	1ryy
2C/	Cu-	2C/	Cu-	2c\	Cu-	.
=42-	=42-	=42-	=42-	=42-	=42-	=42-
2C/	-ſto-	2C/	-ſto-	2c\	-ſto-	1ryy
1G	di-	1G	di-	1B	di-	.
.	.	.	.	.	.	1ryy
2A\	-rent	2A\	-rent	1A	-rent	.
=43-	=43-	=43-	=43-	=43-	=43-	=43-
1E	il-	1E	il-	.	.	1ryy
.	.	.	.	2G/	il-	.
!	!	!LO:TX:a:t=P:problem:fermata bez kropki	!	!LO:TX:a:t=P:problem:fermata bez kropki	!	!
0AA;>	-lud	0AA;>	-lud	0A;>	-lud	1ryy
*	*Xij	*	*Xij	*	*Xij	*
=44-	=44-	=44-	=44-	=44-	=44-	=44-
.	.	.	.	.	.	1ryy
=-	=-	=-	=-	=-	=-	=-
*-	*-	*-	*-	*-	*-	*-
!!!system-decoration: [(s1,s2,s3,s4)]
!!!RDF**kern: > = above
!!!RDF**kern: < = below
!!!EED: Mateusz Mrugas
!!!EST: 2021-02-28
!!!ENC: Krzysztof Stępień
!!!END: 2021-02-11
